bicons/22x22/mime-types/office-ms-word.svg

<?xml version="1.0" encoding="UTF-8" standalone="no"?>
<!-- Created with Inkscape (http://www.inkscape.org/) -->

<svg
   xmlns:dc="http://purl.org/dc/elements/1.1/"
   xmlns:cc="http://creativecommons.org/ns#"
   xmlns:rdf="http://www.w3.org/1999/02/22-rdf-syntax-ns#"
   xmlns:svg="http://www.w3.org/2000/svg"
   xmlns="http://www.w3.org/2000/svg"
   xmlns:xlink="http://www.w3.org/1999/xlink"
   xmlns:sodipodi="http://sodipodi.sourceforge.net/DTD/sodipodi-0.dtd"
   xmlns:inkscape="http://www.inkscape.org/namespaces/inkscape"
   width="210mm"
   height="297mm"
   viewBox="0 0 744.09448819 1052.3622047"
   id="svg2"
   version="1.1"
   inkscape:version="0.91 r13725"
   inkscape:export-xdpi="4.9499998"
   inkscape:export-ydpi="4.9499998"
   sodipodi:docname="office-ms-word.svg"
   inkscape:export-filename="D:\Dokumente\Arbeit\RRZE\github\bicons\22x22\mime-types\office-ms-word.png">
  <defs
     id="defs4">
    <linearGradient
       id="linearGradient2224">
      <stop
         id="stop2226"
         offset="0"
         style="stop-color:#7c7c7c;stop-opacity:1;" />
      <stop
         id="stop2228"
         offset="1"
         style="stop-color:#b8b8b8;stop-opacity:1;" />
    </linearGradient>
    <linearGradient
       id="linearGradient15218">
      <stop
         id="stop15220"
         offset="0"
         style="stop-color:#eeeeef;stop-opacity:1;" />
      <stop
         id="stop2736"
         offset="0.59928656"
         style="stop-color:#d3d7cf;stop-opacity:1;" />
      <stop
         id="stop2738"
         offset="0.82758623"
         style="stop-color:#ffffff;stop-opacity:1;" />
      <stop
         id="stop15222"
         offset="1"
         style="stop-color:#d3d7cf;stop-opacity:1;" />
    </linearGradient>
    <pattern
       y="0"
       x="0"
       height="6"
       width="6"
       patternUnits="userSpaceOnUse"
       id="EMFhbasepattern" />
    <pattern
       y="0"
       x="0"
       height="6"
       width="6"
       patternUnits="userSpaceOnUse"
       id="EMFhbasepattern-5" />
    <linearGradient
       id="linearGradient3672">
      <stop
         id="stop3674"
         offset="0"
         style="stop-color:#3465a4;stop-opacity:1;" />
      <stop
         id="stop3676"
         offset="1"
         style="stop-color:#729fcf;stop-opacity:1;" />
    </linearGradient>
    <linearGradient
       inkscape:collect="always"
       xlink:href="#linearGradient4167"
       id="linearGradient4201"
       x1="286.38269"
       y1="672.9209"
       x2="532.51678"
       y2="367.74933"
       gradientUnits="userSpaceOnUse"
       gradientTransform="matrix(1.1363532,0,0,1.1367039,-53.730693,-53.68235)" />
    <linearGradient
       inkscape:collect="always"
       id="linearGradient4167">
      <stop
         style="stop-color:#4e505d;stop-opacity:1;"
         offset="0"
         id="stop4169" />
      <stop
         style="stop-color:#7a8597;stop-opacity:1"
         offset="1"
         id="stop4171" />
    </linearGradient>
  </defs>
  <sodipodi:namedview
     id="base"
     pagecolor="#ffffff"
     bordercolor="#666666"
     borderopacity="1.0"
     inkscape:pageopacity="0.0"
     inkscape:pageshadow="2"
     inkscape:zoom="2"
     inkscape:cx="310.69153"
     inkscape:cy="473.98103"
     inkscape:document-units="px"
     inkscape:current-layer="layer1"
     showgrid="false"
     showguides="true"
     inkscape:guide-bbox="true"
     inkscape:window-width="1600"
     inkscape:window-height="837"
     inkscape:window-x="-4"
     inkscape:window-y="-4"
     inkscape:window-maximized="1"
     inkscape:snap-bbox="true"
     inkscape:bbox-paths="true"
     inkscape:bbox-nodes="true">
    <sodipodi:guide
       position="560,730.00002"
       orientation="0,1"
       id="guide3338" />
    <sodipodi:guide
       position="560,330.00001"
       orientation="0,1"
       id="guide3340" />
    <sodipodi:guide
       position="190,475.00001"
       orientation="1,0"
       id="guide3344" />
    <sodipodi:guide
       position="590,451.00001"
       orientation="1,0"
       id="guide3346" />
    <inkscape:grid
       type="xygrid"
       id="grid3440" />
  </sodipodi:namedview>
  <metadata
     id="metadata7">
    <rdf:RDF>
      <cc:Work
         rdf:about="">
        <dc:format>image/svg+xml</dc:format>
        <dc:type
           rdf:resource="http://purl.org/dc/dcmitype/StillImage" />
        <dc:title>office ms word</dc:title>
        <dc:date>June 2015</dc:date>
        <dc:creator>
          <cc:Agent>
            <dc:title>Franziska Sponsel, Johannes Hechler</dc:title>
          </cc:Agent>
        </dc:creator>
        <dc:rights>
          <cc:Agent>
            <dc:title>Franziska Sponsel, Johannes Hechler</dc:title>
          </cc:Agent>
        </dc:rights>
        <dc:publisher>
          <cc:Agent>
            <dc:title>RRZE</dc:title>
          </cc:Agent>
        </dc:publisher>
        <dc:contributor>
          <cc:Agent>
            <dc:title>Ute Weber, Hendrik Eggers</dc:title>
          </cc:Agent>
        </dc:contributor>
      </cc:Work>
    </rdf:RDF>
  </metadata>
  <g
     inkscape:label="Ebene 1"
     inkscape:groupmode="layer"
     id="layer1">
    <path
       style="fill:url(#linearGradient4201);fill-opacity:1;fill-rule:evenodd;stroke:none;stroke-width:1px;stroke-linecap:butt;stroke-linejoin:miter;stroke-opacity:1"
       d="m 263.11133,321.91211 c -11.3891,-0.0191 -17.07144,5.61371 -17.02344,16.83789 -0.048,93.35256 -0.048,252.48762 -0.0176,366.17969 -0.0303,11.34535 5.68558,17.10215 16.97852,17.02539 l 98.25195,0.0273 0,-140.34375 -1.66601,-0.0664 c -9.68244,-0.38988 -17.31893,-8.37426 -17.27735,-18.06446 l 0.10156,-23.25195 c 0.0451,-9.9041 8.08214,-17.91151 17.98633,-17.91992 l 64.00586,-0.0488 c 5.27307,0.003 10.27954,2.31846 13.69727,6.33398 3.42546,-4.17542 8.54459,-6.5923 13.94531,-6.58398 l 46.1543,0.11133 c 6.12097,0.0241 11.8103,3.15678 15.10351,8.3164 3.28799,-5.23547 9.03254,-8.41746 15.21485,-8.42773 l 10.04882,-0.0117 0,-74.01562 c -26.82812,1.08607 -117.1396,8.12281 -125.08007,-0.0996 -7.94047,-8.22246 -2.17579,-125.97461 -2.17578,-125.97461 0,0 -123.18086,-0.026 -148.24805,-0.0234 z m 167.35937,2.01758 c -0.90129,34.05128 -4.33067,97.46649 2.5,104.7832 6.83067,7.31671 68.18512,1.18822 105.56836,-0.0625 -26.33709,-42.59444 -64.80917,-79.05358 -108.06836,-104.7207 z m 32.96875,234.13476 -36.03515,76.26758 c -5.63363,11.88226 -21.69203,13.91079 -30.10352,3.80274 l 0,66.22656 4.6582,0 33.25586,-45.75977 c 9.4368,-12.97829 29.8552,-8.0574 32.34375,7.79492 l 5.95118,37.96485 15.66015,0 49.44336,-104.14063 0,-5.15429 -25.6914,35.96093 c -10.17609,14.23512 -32.62547,7.05105 -32.64649,-10.44726 l -0.0566,-62.47461 z"
       id="path4244"
       inkscape:connector-curvature="0"
       sodipodi:nodetypes="ccccccccccccccccccscccsccccccccccccccccc" />
    <path
       style="color:#252525;clip-rule:nonzero;display:inline;overflow:visible;visibility:visible;opacity:1;isolation:auto;mix-blend-mode:normal;color-interpolation:sRGB;color-interpolation-filters:linearRGB;solid-color:#252525;solid-opacity:1;fill:#ffffff;fill-opacity:1;fill-rule:nonzero;stroke:none;stroke-width:50;stroke-linecap:square;stroke-linejoin:round;stroke-miterlimit:4;stroke-dasharray:none;stroke-dashoffset:0;stroke-opacity:1;color-rendering:auto;image-rendering:auto;shape-rendering:auto;text-rendering:auto;enable-background:accumulate"
       d="m 274.6543,485.34766 c -5.26853,0 -9.50977,4.24124 -9.50977,9.50976 l 0,0.0781 c 0,5.26852 4.24124,9.50976 9.50977,9.50976 l 83.16992,0 c 0.86182,-0.0644 1.72924,-0.10863 2.60547,-0.10937 l 0.002,0 64.00586,-0.0488 0.0254,0 c 1.02797,6.5e-4 2.04659,0.0605 3.05859,0.1582 l 19.41602,0 c 1.70323,-0.26512 3.43308,-0.41103 5.18359,-0.4082 l 0.0156,0 46.1543,0.11133 0.0273,0 c 1.44913,0.006 2.88232,0.11257 4.29883,0.29687 l 11.89258,0 c 5.26852,0 9.50976,-4.24124 9.50976,-9.50976 l 0,-0.0781 c 0,-5.26852 -4.24124,-9.50976 -9.50976,-9.50976 z m -1.0586,55.0039 c -4.87826,0 -8.80468,3.92642 -8.80468,8.80469 l 0,0.0723 c 0,4.87826 3.92642,8.80468 8.80468,8.80468 l 42.78516,0 0.0781,-17.68164 z m 0.5293,54.67383 c -5.17096,0 -9.33398,4.16301 -9.33398,9.33399 l 0,0.0762 c 0,5.17096 4.16302,9.33398 9.33398,9.33398 l 61.67578,0 0,-14.83398 -0.33398,-3.91016 z"
       id="rect4227"
       inkscape:connector-curvature="0"
       sodipodi:nodetypes="ssssccccccccccccsssssssssccssssscccs" />
    <rect
       style="opacity:1;fill:none;fill-opacity:1;stroke:none;stroke-width:23;stroke-linecap:butt;stroke-linejoin:round;stroke-miterlimit:4;stroke-dasharray:none;stroke-opacity:1"
       id="rect4160"
       width="400"
       height="401.00064"
       x="190.92738"
       y="322.02747" />
    <path
       inkscape:connector-curvature="0"
       style="fill:#99b000;fill-opacity:1;stroke:none;stroke-width:10.78998089;stroke-linecap:butt;stroke-linejoin:round;stroke-miterlimit:4;stroke-dasharray:none;stroke-opacity:1"
       d="m 360.45842,540.33533 -0.10151,23.25174 18.94484,0.75969 0,158.01544 31.82735,0 38.64749,-53.17825 8.33573,53.17825 42.43648,0 75.0216,-158.01544 14.3981,-0.75969 0.0315,-23.62229 -61.41283,0.0719 0,24.31006 9.85133,0 -40.16308,56.21704 -0.0717,-80.41481 -46.15368,-0.11234 -40.92089,86.60461 -0.75778,-63.05425 13.64028,-0.75968 0.45337,-22.53963 z"
       id="path3628"
       sodipodi:nodetypes="cccccccccccccccccccccc" />
  </g>
</svg>

<?xml version="1.0" encoding="UTF-8" standalone="no"?>
<!-- Created with Inkscape (http://www.inkscape.org/) -->

<svg
   xmlns:dc="http://purl.org/dc/elements/1.1/"
   xmlns:cc="http://creativecommons.org/ns#"
   xmlns:rdf="http://www.w3.org/1999/02/22-rdf-syntax-ns#"
   xmlns:svg="http://www.w3.org/2000/svg"
   xmlns="http://www.w3.org/2000/svg"
   xmlns:xlink="http://www.w3.org/1999/xlink"
   xmlns:sodipodi="http://sodipodi.sourceforge.net/DTD/sodipodi-0.dtd"
   xmlns:inkscape="http://www.inkscape.org/namespaces/inkscape"
   width="210mm"
   height="297mm"
   viewBox="0 0 744.09448819 1052.3622047"
   id="svg2"
   version="1.1"
   inkscape:version="0.91 r13725"
   inkscape:export-xdpi="4.9499998"
   inkscape:export-ydpi="4.9499998"
   sodipodi:docname="office-ms-word.svg"
   inkscape:export-filename="C:\Users\johannes\Documents\Arbeit\RRZE\github3\bicons\22x22\mime-types\office-ms-word.png">
  <defs
     id="defs4">
    <linearGradient
       id="linearGradient2224">
      <stop
         id="stop2226"
         offset="0"
         style="stop-color:#7c7c7c;stop-opacity:1;" />
      <stop
         id="stop2228"
         offset="1"
         style="stop-color:#b8b8b8;stop-opacity:1;" />
    </linearGradient>
    <linearGradient
       id="linearGradient15218">
      <stop
         id="stop15220"
         offset="0"
         style="stop-color:#eeeeef;stop-opacity:1;" />
      <stop
         id="stop2736"
         offset="0.59928656"
         style="stop-color:#d3d7cf;stop-opacity:1;" />
      <stop
         id="stop2738"
         offset="0.82758623"
         style="stop-color:#ffffff;stop-opacity:1;" />
      <stop
         id="stop15222"
         offset="1"
         style="stop-color:#d3d7cf;stop-opacity:1;" />
    </linearGradient>
    <pattern
       y="0"
       x="0"
       height="6"
       width="6"
       patternUnits="userSpaceOnUse"
       id="EMFhbasepattern" />
    <pattern
       y="0"
       x="0"
       height="6"
       width="6"
       patternUnits="userSpaceOnUse"
       id="EMFhbasepattern-5" />
    <linearGradient
       id="linearGradient3672">
      <stop
         id="stop3674"
         offset="0"
         style="stop-color:#3465a4;stop-opacity:1;" />
      <stop
         id="stop3676"
         offset="1"
         style="stop-color:#729fcf;stop-opacity:1;" />
    </linearGradient>
    <linearGradient
       inkscape:collect="always"
       xlink:href="#linearGradient4167"
       id="linearGradient4201"
       x1="286.38269"
       y1="672.9209"
       x2="532.51678"
       y2="367.74933"
       gradientUnits="userSpaceOnUse"
       gradientTransform="matrix(1.1363532,0,0,1.1367039,-53.730693,-53.68235)" />
    <linearGradient
       inkscape:collect="always"
       id="linearGradient4167">
      <stop
         style="stop-color:#4e505d;stop-opacity:1;"
         offset="0"
         id="stop4169" />
      <stop
         style="stop-color:#7a8597;stop-opacity:1"
         offset="1"
         id="stop4171" />
    </linearGradient>
  </defs>
  <sodipodi:namedview
     id="base"
     pagecolor="#ffffff"
     bordercolor="#666666"
     borderopacity="1.0"
     inkscape:pageopacity="0.0"
     inkscape:pageshadow="2"
     inkscape:zoom="0.70710678"
     inkscape:cx="129.14486"
     inkscape:cy="548.85282"
     inkscape:document-units="px"
     inkscape:current-layer="layer1"
     showgrid="false"
     showguides="true"
     inkscape:guide-bbox="true"
     inkscape:window-width="1366"
     inkscape:window-height="721"
     inkscape:window-x="-4"
     inkscape:window-y="-4"
     inkscape:window-maximized="1"
     inkscape:snap-bbox="true"
     inkscape:bbox-paths="true"
     inkscape:bbox-nodes="true">
    <sodipodi:guide
       position="560,730.00002"
       orientation="0,1"
       id="guide3338" />
    <sodipodi:guide
       position="560,330.00001"
       orientation="0,1"
       id="guide3340" />
    <sodipodi:guide
       position="190,475.00001"
       orientation="1,0"
       id="guide3344" />
    <sodipodi:guide
       position="590,451.00001"
       orientation="1,0"
       id="guide3346" />
    <inkscape:grid
       type="xygrid"
       id="grid3440" />
  </sodipodi:namedview>
  <metadata
     id="metadata7">
    <rdf:RDF>
      <cc:Work
         rdf:about="">
        <dc:format>image/svg+xml</dc:format>
        <dc:type
           rdf:resource="http://purl.org/dc/dcmitype/StillImage" />
        <dc:title>office ms word</dc:title>
        <dc:date>June 2015</dc:date>
        <dc:creator>
          <cc:Agent>
            <dc:title>Franziska Sponsel, Johannes Hechler</dc:title>
          </cc:Agent>
        </dc:creator>
        <dc:rights>
          <cc:Agent>
            <dc:title>Franziska Sponsel, Johannes Hechler</dc:title>
          </cc:Agent>
        </dc:rights>
        <dc:publisher>
          <cc:Agent>
            <dc:title>RRZE</dc:title>
          </cc:Agent>
        </dc:publisher>
        <dc:contributor>
          <cc:Agent>
            <dc:title>Ute Weber, Hendrik Eggers</dc:title>
          </cc:Agent>
        </dc:contributor>
      </cc:Work>
    </rdf:RDF>
  </metadata>
  <g
     inkscape:label="Ebene 1"
     inkscape:groupmode="layer"
     id="layer1">
    <path
       style="fill:url(#linearGradient4201);fill-opacity:1;fill-rule:evenodd;stroke:none;stroke-width:1px;stroke-linecap:butt;stroke-linejoin:miter;stroke-opacity:1"
       d="M 263.11133 321.91211 C 251.72223 321.89301 246.03989 327.52582 246.08789 338.75 C 246.03989 432.10256 246.03991 591.23762 246.07031 704.92969 C 246.04001 716.27504 251.75589 722.03184 263.04883 721.95508 L 361.30078 721.98242 L 361.30078 581.63867 L 359.63477 581.57227 A 18.0018 18.0018 0 0 1 342.35742 563.50781 L 342.45898 540.25586 A 18.0018 18.0018 0 0 1 360.44531 522.33594 L 424.45117 522.28711 A 18.0018 18.0018 0 0 1 438.14844 528.62109 A 18.0018 18.0018 0 0 1 452.09375 522.03711 L 498.24805 522.14844 A 18.0018 18.0018 0 0 1 513.35156 530.46484 A 18.0018 18.0018 0 0 1 528.56641 522.03711 L 538.61523 522.02539 L 538.61523 448.00977 C 511.78711 449.09584 421.47563 456.13258 413.53516 447.91016 C 405.59469 439.6877 411.35937 321.93555 411.35938 321.93555 C 411.35938 321.93555 288.17852 321.90951 263.11133 321.91211 z M 430.4707 323.92969 C 429.56941 357.98097 426.14003 421.39618 432.9707 428.71289 C 439.80137 436.0296 501.15582 429.90111 538.53906 428.65039 C 512.20197 386.05595 473.72989 349.59681 430.4707 323.92969 z M 463.43945 558.06445 L 427.4043 634.33203 A 18.0018 18.0018 0 0 1 397.30078 638.13477 L 397.30078 704.36133 L 401.95898 704.36133 L 435.21484 658.60156 A 18.0018 18.0018 0 0 1 467.55859 666.39648 L 473.50977 704.36133 L 489.16992 704.36133 L 538.61328 600.2207 L 538.61328 595.06641 L 512.92188 631.02734 A 18.0018 18.0018 0 0 1 480.27539 620.58008 L 480.21875 558.10547 L 463.43945 558.06445 z M 538.61328 684.15625 L 520.63477 722.02539 L 521.43164 722.02539 C 532.85451 721.96009 538.53852 716.27532 538.61328 704.8125 L 538.61328 684.15625 z M 438.73828 714.99219 L 433.64453 722.00195 L 439.83594 722.00391 L 438.73828 714.99219 z "
       id="path4244" />
    <path
       style="color:#252525;clip-rule:nonzero;display:inline;overflow:visible;visibility:visible;opacity:18000004;isolation:auto;mix-blend-mode:normal;color-interpolation:sRGB;color-interpolation-filters:linearRGB;solid-color:#252525;solid-opacity:1;fill:#ffffff;fill-opacity:1;fill-rule:nonzero;stroke:none;stroke-width:50;stroke-linecap:square;stroke-linejoin:round;stroke-miterlimit:4;stroke-dasharray:none;stroke-dashoffset:0;stroke-opacity:1;color-rendering:auto;image-rendering:auto;shape-rendering:auto;text-rendering:auto;enable-background:accumulate"
       d="m 274.6543,485.34766 c -5.26853,0 -9.50977,4.24124 -9.50977,9.50976 l 0,0.0781 c 0,5.26852 4.24124,9.50976 9.50977,9.50976 l 83.16992,0 c 0.86182,-0.0644 1.72924,-0.10863 2.60547,-0.10937 l 0.002,0 64.00586,-0.0488 0.0254,0 c 1.02797,6.5e-4 2.04659,0.0605 3.05859,0.1582 l 19.41602,0 c 1.70323,-0.26512 3.43308,-0.41103 5.18359,-0.4082 l 0.0156,0 46.1543,0.11133 0.0273,0 c 1.44913,0.006 2.88232,0.11257 4.29883,0.29687 l 11.89258,0 c 5.26852,0 9.50976,-4.24124 9.50976,-9.50976 l 0,-0.0781 c 0,-5.26852 -4.24124,-9.50976 -9.50976,-9.50976 z m -1.0586,55.0039 c -4.87826,0 -8.80468,3.92642 -8.80468,8.80469 l 0,0.0723 c 0,4.87826 3.92642,8.80468 8.80468,8.80468 l 50.78516,0 0.0781,-17.68164 z m 0.5293,54.67383 c -5.17096,0 -9.33398,4.16301 -9.33398,9.33399 l 0,0.0762 c 0,5.17096 4.16302,9.33398 9.33398,9.33398 l 69.17578,0 0,-14.83398 -0.33398,-3.91016 z"
       id="rect4227"
       inkscape:connector-curvature="0"
       sodipodi:nodetypes="ssssccccccccccccsssssssssccssssscccs" />
    <rect
       style="opacity:1;fill:none;fill-opacity:1;stroke:none;stroke-width:23;stroke-linecap:butt;stroke-linejoin:round;stroke-miterlimit:4;stroke-dasharray:none;stroke-opacity:1"
       id="rect4160"
       width="400"
       height="401.00064"
       x="190.92738"
       y="322.02747" />
    <path
       inkscape:connector-curvature="0"
       style="fill:#99b000;fill-opacity:1;stroke:none;stroke-width:10.78998089;stroke-linecap:butt;stroke-linejoin:round;stroke-miterlimit:4;stroke-dasharray:none;stroke-opacity:1"
       d="m 360.45842,540.33533 -0.10151,23.25174 18.94484,0.75969 0,158.01544 31.82735,0 38.64749,-53.17825 8.33573,53.17825 42.43648,0 75.0216,-158.01544 14.3981,-0.75969 0.0315,-23.62229 -61.41283,0.0719 0,24.31006 9.85133,0 -40.16308,56.21704 -0.0717,-80.41481 -46.15368,-0.11234 -40.92089,86.60461 -0.75778,-63.05425 13.64028,-0.75968 0.45337,-22.53963 z"
       id="path3628"
       sodipodi:nodetypes="cccccccccccccccccccccc" />
  </g>
</svg>
